X:10
T:YNDRMTN2- On yonder high Mountain
S:from 'Sylvia', 1731
Q:1/4=120
L:1/4
M:3/4
K:G
d|B3/2 A/B/c/|dG/F/G/A/|B/G/c/B/A/G/|A2d|B3/2 A/B/c/|dG/F/G/A/|\
B/G/c/B/A/G/|G2||B/c/|dde/f/|g/f/e/d/c/B/|g3/2 e/d/B/|A2c/d/|\
e=f/e/d/c/|dG/F/G/A/|B/G/c/B/A/G/|G2|]

